X: 369
T: Back Up and Push
C:Lou Martin "Approximate Literal Rectified" version
B: jims roots
M:2/4
L:1/8
Q: 1/4=100
K:C
V:1 
x2[eg][eg] edcA | "F"d2cA [Ac][Ac][Ac][Ac] | [A2c] {[df]}[eg][eg] edcA | "C"cdcA [Gc][Gc][Gc][Gc] |
|:"F"F2 FF FGAA | Accc dccc | "C"ecdc cdcA | BAGD EDCA, |
[1"G"G,B,B,D D^FGF | GEDC B,G,G,B, | "C"CCCD EGGB | cAGF EDCD :|
V:2 "G" G,B,B,D D^FGF | GEDB, G,A,B,D | "C" C2 [Ec
V:G2c 
 GA cdee | "G"eggg ggga | g2 {a}bb bage | "C"a2g2 [eg][eg][eg][eg] ||
 cd eega | "G"g2 [db]b bb[db][db] | [d2b] ga gedc | "C"[Gc][Gc][Gc][Gc] [Gc][Gc][Gc][Gc] | [G2c] CC DDED |]
V:e2g 
 ga gedc | "F"dcAc [Ac][Ac][Ac][Ac] | [A2c] cd eded | "C"cdcA [Gc][Gc][Gc][Gc] |
V:Ec 
-[Ec][Ec][Ec][Ec] | [E2c] |]
% abcbook-tune_id 6298c245139d59b8f68df8fa


% abcbook-boost 0
% abcbook-tablature 
% abcbook-transpose 
% abcbook-lastupdated 1654178373230
% abcbook-soundfonts 
% abcbook-repeats 1


